!!!!SEGMENT: chor252.krn
!!!COM: Bach, Johann Sebastian
!!!CDT: 1685/02/21/-1750/07/28/
!!!OTL@@DE: Jesu, nun sei gepreiset
!!!SCT: BWV 362
!!!PC#: 252
!!!AGN: chorale
**kern	**kern	**kern	**kern
*ICvox	*ICvox	*ICvox	*ICvox
*Ibass	*Itenor	*Ialto	*Isoprn
*I"Bass	*I"Tenor	*I"Alto	*I"Soprano
*clefF4	*clefGv2	*clefG2	*clefG2
*k[b-e-]	*k[b-e-]	*k[b-e-]	*k[b-e-]
*B-:	*B-:	*B-:	*B-:
*M4/4	*M4/4	*M4/4	*M4/4
*met(c)	*met(c)	*met(c)	*met(c)
*MM100	*MM100	*MM100	*MM100
4B-	4B-	4f	4dd
=15	=15	=15	=15
4A	4c	8fL	8ccL
.	.	8dJ	8bnJ
4A-	4c	8e-L	8ccL
.	.	8fJ	8ffJ
8GL	4c	8gL	8ee-L
8FJ	.	8a-J	8ddJ
4G	4Bn	8gL	4dd
.	.	8fJ	.
=16	=16	=16	=16
*M3/4	*M3/4	*M3/4	*M3/4
2C	2G	2e-	2cc
4D	4d	4f	4bn
=17	=17	=17	=17
4E-	4c	2g	2cc
4En	4B-	.	.
4F	4A-	8fL	4cc
.	.	8e-XJ	.
=18	=18	=18	=18
4F	2An	4d	2dd
4F#	.	8ddL	.
.	.	8ccJ	.
[4G	4B-	8b-L	4dd
.	.	8a-J	.
=19	=19	=19	=19
4G]	4Bn	8gL	2.ee-
.	.	8f	.
4A-	[2c	8e-	.
.	.	8g	.
4G	.	8cc	.
.	.	8b-XJ	.
=20	=20	=20	=20
4F#	4c]	4an	2dd
4G	4B-X	4d	.
4Fn	4B-	4g	4dd
=21	=21	=21	=21
4En	4B-	4g	2cc
8FL	8A-L	4f	.
8GJ	8B-J	.	.
4A-	8cL	8e-XL	4cc
.	8dJ	8fJ	.
=22	=22	=22	=22
4G	4e-	4g	4cc
4F	4f	4a-	8ee-L
.	.	.	8ddJ
4G	4d	4g	8ccL
.	.	.	8b-XJ
=23	=23	=23	=23
2C;	2e-;	2g;	2cc;
*-	*-	*-	*-